Yosa-Max/places/16x16/folder-images-symbolic.svg

<?xml version="1.0" encoding="UTF-8"?>
<svg id="svg6" version="1.1" viewBox="0 0 16 16" xmlns="http://www.w3.org/2000/svg">
 <defs id="defs3051">
  <style id="current-color-scheme" type="text/css">.ColorScheme-Text {
        color:#000000;
      }</style>
  <style id="current-color-scheme-3" type="text/css">.ColorScheme-Text {
        color:#000000;
      }</style>
  <style id="current-color-scheme-9" type="text/css">.ColorScheme-Text {
        color:#000000;
      }</style>
  <style id="current-color-scheme-3-3" type="text/css">.ColorScheme-Text {
        color:#000000;
      }</style>
  <style id="current-color-scheme-2" type="text/css">.ColorScheme-Text {
        color:#000000;
      }</style>
  <style id="current-color-scheme-0" type="text/css">.ColorScheme-Text { color:#5c616c; } .ColorScheme-Highlight { color:#5294e2; } .ColorScheme-ButtonBackground { color:#d3dae3; }</style>
  <style id="current-color-scheme-37" type="text/css">.ColorScheme-Text { color:#5c616c; } .ColorScheme-Highlight { color:#5294e2; } .ColorScheme-ButtonBackground { color:#d3dae3; }</style>
  <style id="current-color-scheme-3-5" type="text/css">.ColorScheme-Text { color:#5c616c; } .ColorScheme-Highlight { color:#5294e2; } .ColorScheme-ButtonBackground { color:#d3dae3; }</style>
  <style id="current-color-scheme-6" type="text/css">.ColorScheme-Text { color:#5c616c; } .ColorScheme-Highlight { color:#5294e2; } .ColorScheme-ButtonBackground { color:#d3dae3; }</style>
  <style id="current-color-scheme-7" type="text/css">.ColorScheme-Text {
        color:#000000;
      }</style>
  <style id="current-color-scheme-3-36" type="text/css">.ColorScheme-Text { color:#5c616c; } .ColorScheme-Highlight { color:#5294e2; } .ColorScheme-ButtonBackground { color:#d3dae3; }</style>
  <style id="current-color-scheme-36" type="text/css">.ColorScheme-Text { color:#5c616c; } .ColorScheme-Highlight { color:#5294e2; } .ColorScheme-ButtonBackground { color:#d3dae3; }</style>
  <style id="current-color-scheme-1" type="text/css">.ColorScheme-Text { color:#5c616c; } .ColorScheme-Highlight { color:#5294e2; } .ColorScheme-ButtonBackground { color:#d3dae3; }</style>
  <style id="current-color-scheme-3-2" type="text/css">.ColorScheme-Text { color:#5c616c; } .ColorScheme-Highlight { color:#5294e2; } .ColorScheme-ButtonBackground { color:#d3dae3; }</style>
  <style id="current-color-scheme-6-9" type="text/css">.ColorScheme-Text { color:#5c616c; } .ColorScheme-Highlight { color:#5294e2; } .ColorScheme-ButtonBackground { color:#d3dae3; }</style>
  <style id="current-color-scheme-4" type="text/css">.ColorScheme-Text {
        color:#000000;
      }</style>
  <style id="current-color-scheme-06" type="text/css">.ColorScheme-Text {
        color:#000000;
      }</style>
  <style id="current-color-scheme-5" type="text/css">.ColorScheme-Text {
        color:#000000;
      }</style>
  <style id="current-color-scheme-76" type="text/css">.ColorScheme-Text {
        color:#000000;
      }</style>
  <style id="current-color-scheme-3-56" type="text/css">.ColorScheme-Text {
        color:#000000;
      }</style>
  <style id="current-color-scheme-9-9" type="text/css">.ColorScheme-Text {
        color:#000000;
      }</style>
  <style id="current-color-scheme-3-3-3" type="text/css">.ColorScheme-Text {
        color:#000000;
      }</style>
  <style id="current-color-scheme-2-7" type="text/css">.ColorScheme-Text {
        color:#000000;
      }</style>
  <style id="current-color-scheme-0-4" type="text/css">.ColorScheme-Text { color:#5c616c; } .ColorScheme-Highlight { color:#5294e2; } .ColorScheme-ButtonBackground { color:#d3dae3; }</style>
  <style id="current-color-scheme-37-5" type="text/css">.ColorScheme-Text { color:#5c616c; } .ColorScheme-Highlight { color:#5294e2; } .ColorScheme-ButtonBackground { color:#d3dae3; }</style>
  <style id="current-color-scheme-3-5-2" type="text/css">.ColorScheme-Text { color:#5c616c; } .ColorScheme-Highlight { color:#5294e2; } .ColorScheme-ButtonBackground { color:#d3dae3; }</style>
  <style id="current-color-scheme-6-5" type="text/css">.ColorScheme-Text { color:#5c616c; } .ColorScheme-Highlight { color:#5294e2; } .ColorScheme-ButtonBackground { color:#d3dae3; }</style>
  <style id="current-color-scheme-7-4" type="text/css">.ColorScheme-Text {
        color:#000000;
      }</style>
  <style id="current-color-scheme-3-36-7" type="text/css">.ColorScheme-Text { color:#5c616c; } .ColorScheme-Highlight { color:#5294e2; } .ColorScheme-ButtonBackground { color:#d3dae3; }</style>
  <style id="current-color-scheme-36-4" type="text/css">.ColorScheme-Text { color:#5c616c; } .ColorScheme-Highlight { color:#5294e2; } .ColorScheme-ButtonBackground { color:#d3dae3; }</style>
  <style id="current-color-scheme-1-4" type="text/css">.ColorScheme-Text { color:#5c616c; } .ColorScheme-Highlight { color:#5294e2; } .ColorScheme-ButtonBackground { color:#d3dae3; }</style>
  <style id="current-color-scheme-3-2-3" type="text/css">.ColorScheme-Text { color:#5c616c; } .ColorScheme-Highlight { color:#5294e2; } .ColorScheme-ButtonBackground { color:#d3dae3; }</style>
  <style id="current-color-scheme-6-9-0" type="text/css">.ColorScheme-Text { color:#5c616c; } .ColorScheme-Highlight { color:#5294e2; } .ColorScheme-ButtonBackground { color:#d3dae3; }</style>
  <style id="current-color-scheme-4-7" type="text/css">.ColorScheme-Text {
        color:#000000;
      }</style>
 </defs>
 <path id="path850" d="m1 1v11.375 1.75 0.875h14v-14h-14zm1 1h12v4.9707031l-1.966797-1.9707031-5.0410155 5.054688-2.0175781-2.0214849-2.9746094 2.9824219v-9.015625zm2.5 1c-0.831 0-1.5 0.669-1.5 1.5s0.669 1.5 1.5 1.5 1.5-0.669 1.5-1.5-0.669-1.5-1.5-1.5z" style="color-rendering:auto;color:#000000;fill:#4d4d4d;image-rendering:auto;isolation:auto;mix-blend-mode:normal;shape-rendering:auto;solid-color:#000000"/>
</svg>

<?xml version="1.0" encoding="UTF-8" standalone="no"?>
<svg
   xmlns:dc="http://purl.org/dc/elements/1.1/"
   xmlns:cc="http://creativecommons.org/ns#"
   xmlns:rdf="http://www.w3.org/1999/02/22-rdf-syntax-ns#"
   xmlns:svg="http://www.w3.org/2000/svg"
   xmlns="http://www.w3.org/2000/svg"
   xmlns:sodipodi="http://sodipodi.sourceforge.net/DTD/sodipodi-0.dtd"
   xmlns:inkscape="http://www.inkscape.org/namespaces/inkscape"
   viewBox="0 0 16 16"
   version="1.1"
   id="svg6"
   sodipodi:docname="folder-pictures-symbolic.svg"
   inkscape:version="0.92.4 (unknown)"
   width="16"
   height="16">
  <metadata
     id="metadata10">
    <rdf:RDF>
      <cc:Work
         rdf:about="">
        <dc:format>image/svg+xml</dc:format>
        <dc:type
           rdf:resource="http://purl.org/dc/dcmitype/StillImage" />
        <dc:title />
      </cc:Work>
    </rdf:RDF>
  </metadata>
  <sodipodi:namedview
     pagecolor="#ffffff"
     bordercolor="#666666"
     borderopacity="1"
     objecttolerance="10"
     gridtolerance="10"
     guidetolerance="10"
     inkscape:pageopacity="0"
     inkscape:pageshadow="2"
     inkscape:window-width="1366"
     inkscape:window-height="709"
     id="namedview8"
     showgrid="false"
     inkscape:zoom="15.90625"
     inkscape:cx="5.5779552"
     inkscape:cy="7.3223558"
     inkscape:window-x="0"
     inkscape:window-y="0"
     inkscape:window-maximized="1"
     inkscape:current-layer="svg6"
     showguides="false"
     borderlayer="false"
     inkscape:showpageshadow="false" />
  <defs
     id="defs3051">
    <style
       type="text/css"
       id="current-color-scheme">
      .ColorScheme-Text {
        color:#000000;
      }
      </style>
    <style
       id="current-color-scheme-3"
       type="text/css">
      .ColorScheme-Text {
        color:#000000;
      }
      </style>
    <style
       id="current-color-scheme-9"
       type="text/css">
      .ColorScheme-Text {
        color:#000000;
      }
      </style>
    <style
       type="text/css"
       id="current-color-scheme-3-3">
      .ColorScheme-Text {
        color:#000000;
      }
      </style>
    <style
       type="text/css"
       id="current-color-scheme-2">
      .ColorScheme-Text {
        color:#000000;
      }
      </style>
    <style
       id="current-color-scheme-0"
       type="text/css">
   .ColorScheme-Text { color:#5c616c; } .ColorScheme-Highlight { color:#5294e2; } .ColorScheme-ButtonBackground { color:#d3dae3; }
  </style>
    <style
       id="current-color-scheme-37"
       type="text/css">
   .ColorScheme-Text { color:#5c616c; } .ColorScheme-Highlight { color:#5294e2; } .ColorScheme-ButtonBackground { color:#d3dae3; }
  </style>
    <style
       type="text/css"
       id="current-color-scheme-3-5">
   .ColorScheme-Text { color:#5c616c; } .ColorScheme-Highlight { color:#5294e2; } .ColorScheme-ButtonBackground { color:#d3dae3; }
  </style>
    <style
       type="text/css"
       id="current-color-scheme-6">
   .ColorScheme-Text { color:#5c616c; } .ColorScheme-Highlight { color:#5294e2; } .ColorScheme-ButtonBackground { color:#d3dae3; }
  </style>
    <style
       id="current-color-scheme-7"
       type="text/css">
      .ColorScheme-Text {
        color:#000000;
      }
      </style>
    <style
       type="text/css"
       id="current-color-scheme-3-36">
   .ColorScheme-Text { color:#5c616c; } .ColorScheme-Highlight { color:#5294e2; } .ColorScheme-ButtonBackground { color:#d3dae3; }
  </style>
    <style
       type="text/css"
       id="current-color-scheme-36">
   .ColorScheme-Text { color:#5c616c; } .ColorScheme-Highlight { color:#5294e2; } .ColorScheme-ButtonBackground { color:#d3dae3; }
  </style>
    <style
       id="current-color-scheme-1"
       type="text/css">
   .ColorScheme-Text { color:#5c616c; } .ColorScheme-Highlight { color:#5294e2; } .ColorScheme-ButtonBackground { color:#d3dae3; }
  </style>
    <style
       type="text/css"
       id="current-color-scheme-3-2">
   .ColorScheme-Text { color:#5c616c; } .ColorScheme-Highlight { color:#5294e2; } .ColorScheme-ButtonBackground { color:#d3dae3; }
  </style>
    <style
       type="text/css"
       id="current-color-scheme-6-9">
   .ColorScheme-Text { color:#5c616c; } .ColorScheme-Highlight { color:#5294e2; } .ColorScheme-ButtonBackground { color:#d3dae3; }
  </style>
    <style
       id="current-color-scheme-4"
       type="text/css">
      .ColorScheme-Text {
        color:#000000;
      }
      </style>
    <style
       type="text/css"
       id="current-color-scheme-06">
      .ColorScheme-Text {
        color:#000000;
      }
      </style>
    <style
       id="current-color-scheme-5"
       type="text/css">
      .ColorScheme-Text {
        color:#000000;
      }
      </style>
    <style
       id="current-color-scheme-76"
       type="text/css">
      .ColorScheme-Text {
        color:#000000;
      }
      </style>
    <style
       type="text/css"
       id="current-color-scheme-3-56">
      .ColorScheme-Text {
        color:#000000;
      }
      </style>
    <style
       type="text/css"
       id="current-color-scheme-9-9">
      .ColorScheme-Text {
        color:#000000;
      }
      </style>
    <style
       id="current-color-scheme-3-3-3"
       type="text/css">
      .ColorScheme-Text {
        color:#000000;
      }
      </style>
    <style
       id="current-color-scheme-2-7"
       type="text/css">
      .ColorScheme-Text {
        color:#000000;
      }
      </style>
    <style
       type="text/css"
       id="current-color-scheme-0-4">
   .ColorScheme-Text { color:#5c616c; } .ColorScheme-Highlight { color:#5294e2; } .ColorScheme-ButtonBackground { color:#d3dae3; }
  </style>
    <style
       type="text/css"
       id="current-color-scheme-37-5">
   .ColorScheme-Text { color:#5c616c; } .ColorScheme-Highlight { color:#5294e2; } .ColorScheme-ButtonBackground { color:#d3dae3; }
  </style>
    <style
       id="current-color-scheme-3-5-2"
       type="text/css">
   .ColorScheme-Text { color:#5c616c; } .ColorScheme-Highlight { color:#5294e2; } .ColorScheme-ButtonBackground { color:#d3dae3; }
  </style>
    <style
       id="current-color-scheme-6-5"
       type="text/css">
   .ColorScheme-Text { color:#5c616c; } .ColorScheme-Highlight { color:#5294e2; } .ColorScheme-ButtonBackground { color:#d3dae3; }
  </style>
    <style
       type="text/css"
       id="current-color-scheme-7-4">
      .ColorScheme-Text {
        color:#000000;
      }
      </style>
    <style
       id="current-color-scheme-3-36-7"
       type="text/css">
   .ColorScheme-Text { color:#5c616c; } .ColorScheme-Highlight { color:#5294e2; } .ColorScheme-ButtonBackground { color:#d3dae3; }
  </style>
    <style
       id="current-color-scheme-36-4"
       type="text/css">
   .ColorScheme-Text { color:#5c616c; } .ColorScheme-Highlight { color:#5294e2; } .ColorScheme-ButtonBackground { color:#d3dae3; }
  </style>
    <style
       type="text/css"
       id="current-color-scheme-1-4">
   .ColorScheme-Text { color:#5c616c; } .ColorScheme-Highlight { color:#5294e2; } .ColorScheme-ButtonBackground { color:#d3dae3; }
  </style>
    <style
       id="current-color-scheme-3-2-3"
       type="text/css">
   .ColorScheme-Text { color:#5c616c; } .ColorScheme-Highlight { color:#5294e2; } .ColorScheme-ButtonBackground { color:#d3dae3; }
  </style>
    <style
       id="current-color-scheme-6-9-0"
       type="text/css">
   .ColorScheme-Text { color:#5c616c; } .ColorScheme-Highlight { color:#5294e2; } .ColorScheme-ButtonBackground { color:#d3dae3; }
  </style>
    <style
       type="text/css"
       id="current-color-scheme-4-7">
      .ColorScheme-Text {
        color:#000000;
      }
      </style>
  </defs>
  <path
     style="color:#000000;clip-rule:nonzero;display:inline;overflow:visible;visibility:visible;opacity:1;isolation:auto;mix-blend-mode:normal;color-interpolation:sRGB;color-interpolation-filters:linearRGB;solid-color:#000000;solid-opacity:1;fill:#4d4d4d;fill-opacity:1;fill-rule:nonzero;stroke:none;stroke-width:0.875;stroke-linecap:butt;stroke-linejoin:miter;stroke-miterlimit:4;stroke-dasharray:none;stroke-dashoffset:0;stroke-opacity:1;color-rendering:auto;image-rendering:auto;shape-rendering:auto;text-rendering:auto;enable-background:accumulate"
     d="M 1 1 L 1 12.375 L 1 14.125 L 1 15 L 15 15 L 15 1 L 1 1 z M 2 2 L 14 2 L 14 6.9707031 L 12.033203 5 L 6.9921875 10.054688 L 4.9746094 8.0332031 L 2 11.015625 L 2 2 z M 4.5 3 C 3.669 3 3 3.669 3 4.5 C 3 5.331 3.669 6 4.5 6 C 5.331 6 6 5.331 6 4.5 C 6 3.669 5.331 3 4.5 3 z "
     id="path850" />
</svg>
